IMB-X-Files/The-Ambassadors-Assets/660bd7b80fb7bcea2a75c178_gr3.svg

<svg fill="none" height="320" viewBox="0 0 564 320" width="564" xmlns="http://www.w3.org/2000/svg" xmlns:xlink="http://www.w3.org/1999/xlink"><linearGradient id="a"><stop offset="0" stop-color="#fff"/><stop offset="1" stop-color="#fff" stop-opacity="0"/></linearGradient><linearGradient id="b" gradientUnits="userSpaceOnUse" x1="135.106" x2="135.106" xlink:href="#a" y1="61.468" y2="215.875"/><linearGradient id="c"><stop offset="0" stop-color="#fff" stop-opacity=".4"/><stop offset="1" stop-color="#fff" stop-opacity=".08"/></linearGradient><linearGradient id="d" gradientUnits="userSpaceOnUse" x1="111.639" x2="131.225" xlink:href="#c" y1="71.4034" y2="167.374"/><linearGradient id="e" gradientUnits="userSpaceOnUse" x1="9.79288" x2="164.521" xlink:href="#a" y1="182.063" y2="182.063"/><linearGradient id="f" gradientUnits="userSpaceOnUse" x1="9.72164" x2="87.0856" xlink:href="#a" y1="198.951" y2="198.951"/><linearGradient id="g" gradientUnits="userSpaceOnUse" x1="428.894" x2="428.894" xlink:href="#a" y1="95.7432" y2="250.151"/><linearGradient id="h" gradientUnits="userSpaceOnUse" x1="348.561" x2="386.314" xlink:href="#c" y1="105.962" y2="188.003"/><linearGradient id="i" gradientUnits="userSpaceOnUse" x1="474.649" x2="507.631" xlink:href="#c" y1="105.962" y2="192.857"/><linearGradient id="j" gradientUnits="userSpaceOnUse" x1="303.812" x2="555.031" xlink:href="#a" y1="216.302" y2="216.302"/><linearGradient id="k" gradientUnits="userSpaceOnUse" x1="303.688" x2="420.466" xlink:href="#a" y1="232.95" y2="232.95"/><linearGradient id="l" gradientUnits="userSpaceOnUse" x1="205.615" x2="205.615" xlink:href="#a" y1="142.835" y2="258.641"/><linearGradient id="m" gradientUnits="userSpaceOnUse" x1="205.616" x2="205.616" xlink:href="#a" y1="152.486" y2="248.99"/><path d="m0 26.8176h83.3009v34.6505h-83.3009z" fill="#0b3cff"/><path d="m9.88683 37.5677h1.60437l2.2968 9.8965h.0338l2.7021-9.8965h1.6889l2.7021 9.8965h.0338l2.2968-9.8965h1.6044l-2.9893 12.0751h-1.6888l-2.7866-10.3525h-.0337l-2.7866 10.3525h-1.6888zm19.12187 11.1294c1.7226 0 2.3644-1.1147 2.5164-1.7057h1.3511c-.4391 1.6043-1.672 2.8879-3.8168 2.8879-2.6177 0-4.2052-1.8409-4.2052-4.543 0-2.871 1.6213-4.5429 4.1377-4.5429 2.7021 0 4.0194 1.8408 4.0194 4.8976h-6.806c0 1.5537.9288 3.0061 2.8034 3.0061zm-.0168-6.7216c-1.6213 0-2.7866 1.1484-2.7866 2.5333h5.4549c0-1.3849-1.0471-2.5333-2.6683-2.5333zm9.6128-1.1821c2.1617 0 3.8843 1.7057 3.8843 4.5429s-1.7226 4.543-3.8843 4.543c-1.3848 0-2.1955-.6418-2.7021-1.3004h-.0338v1.0639h-1.351v-12.0751h1.351v4.5767h.0338c.5066-.7431 1.3173-1.351 2.7021-1.351zm-.1351 7.9037c1.7733 0 2.6684-1.672 2.6684-3.3608s-.8951-3.3608-2.6684-3.3608c-1.6044 0-2.6008 1.3342-2.6008 3.3608s.9964 3.3608 2.6008 3.3608zm9.0178-9.9472c-1.1484-.0845-1.6381.0844-1.6381 1.0639v1.216h1.6381v1.1822h-1.6381v7.4308h-1.3511v-7.4308h-1.1991v-1.1822h1.1991v-1.3511c0-1.7564.8782-2.2123 2.0266-2.2123.304 0 .6587.0337.9626.1013zm1.5364-1.1822h1.351v12.0751h-1.351zm7.1655 12.3116c-2.6346 0-4.2221-1.8578-4.2221-4.543s1.5875-4.5429 4.2221-4.5429c2.6177 0 4.2052 1.8577 4.2052 4.5429s-1.5875 4.543-4.2052 4.543zm0-1.1822c1.9252 0 2.8541-1.52 2.8541-3.3608s-.9289-3.3608-2.8541-3.3608c-1.9422 0-2.871 1.52-2.871 3.3608s.9288 3.3608 2.871 3.3608zm4.7121-7.6673h1.4861l1.9591 7.1437h.0338l1.9252-7.1437h1.4355l1.9422 7.1437h.0338l1.959-7.1437h1.4862l-2.7528 8.613h-1.4355l-1.9422-7.11h-.0337l-1.9084 7.11h-1.4355z" fill="#fff"/><path d="m0 61.468h270.213v154.407h-270.213z" fill="#fff" fill-opacity=".08"/><path d="m.489645 61.9577h269.234v153.428h-269.234z" stroke="url(#b)" stroke-opacity=".4" stroke-width=".97929"/><path d="m9.65039 71.1187h250.912v96.5046h-250.912z" fill="url(#d)"/><path d="m9.65039 177.273h154.407v9.65046h-154.407z" fill="url(#e)" opacity=".24"/><path d="m9.65039 194.162h77.2037v9.65046h-77.2037z" fill="url(#f)" opacity=".24"/><path d="m293.787 61.0928h71.3009v34.6505h-71.3009z" fill="#0b3cff"/><path d="m304.569 83.918v-12.0752h4.374c3.327 0 5.371 2.1617 5.371 6.046 0 3.8844-2.044 6.0292-5.371 6.0292zm1.52-10.7241v9.373h2.854c3.074 0 3.851-2.3137 3.851-4.6781 0-2.3643-.777-4.6949-3.851-4.6949zm13.656 9.7783c1.722 0 2.364-1.1146 2.516-1.7057h1.351c-.439 1.6044-1.672 2.8879-3.817 2.8879-2.617 0-4.205-1.8408-4.205-4.5429 0-2.8711 1.621-4.543 4.138-4.543 2.702 0 4.019 1.8408 4.019 4.8976h-6.806c0 1.5537.929 3.0061 2.804 3.0061zm-.017-6.7215c-1.621 0-2.787 1.1484-2.787 2.5332h5.455c0-1.3848-1.047-2.5332-2.668-2.5332zm9.022 2.5501c1.536.3716 3.276.6249 3.276 2.7528 0 1.5706-1.436 2.6008-3.395 2.6008-2.634 0-3.85-1.2497-3.935-3.1074h1.352c.084.9626.422 1.9252 2.583 1.9252 1.47 0 2.044-.7599 2.044-1.3342 0-1.2497-1.132-1.3172-2.364-1.6212-1.318-.3209-3.277-.4729-3.277-2.4995 0-1.3511 1.199-2.4488 3.226-2.4488 2.145 0 3.293 1.216 3.428 2.7021h-1.351c-.135-.6586-.456-1.5199-2.077-1.5199-1.216 0-1.875.4897-1.875 1.1653 0 1.0133 1.166 1.0977 2.365 1.3848zm5.598-5.1678c-.371 0-.844-.2871-.844-.8106 0-.5236.473-.8107.844-.8107.389 0 .845.2871.845.8107 0 .5235-.456.8106-.845.8106zm-.675 1.6719h1.351v8.6131h-1.351zm9.676 0h1.351v8.1402c0 2.2968-1.452 3.4621-3.817 3.4621-2.364 0-3.766-1.2497-3.901-2.719h1.351c.169.8782.879 1.5368 2.483 1.5368s2.533-.6924 2.533-2.2968v-1.3004h-.034c-.506.7431-1.317 1.3511-2.736 1.3511-2.127 0-3.85-1.368-3.85-4.2052 0-2.8373 1.723-4.2052 3.85-4.2052 1.419 0 2.23.6418 2.736 1.3004h.034zm-2.601 6.9918c1.605 0 2.601-.9964 2.601-3.023s-.996-3.023-2.601-3.023c-1.773 0-2.668 1.3342-2.668 3.023s.895 3.023 2.668 3.023zm10.196-7.2282c1.571 0 2.888.8613 2.888 2.8372v6.0123h-1.351v-5.6745c0-1.1146-.523-1.9928-1.874-1.9928-1.52 0-2.534.9626-2.534 2.2968v5.3705h-1.351v-8.6131h1.351v1.0302h.034c.456-.608 1.368-1.2666 2.837-1.2666z" fill="#fff"/><path d="m293.787 95.7432h270.213v154.407h-270.213z" fill="#fff" fill-opacity=".08"/><path d="m294.277 96.2328h269.234v153.428h-269.234z" stroke="url(#g)" stroke-opacity=".4" stroke-width=".97929"/><path d="m303.581 105.679h110.66v95.9704h-110.66z" fill="url(#h)"/><path d="m420.116 105.679h134.163v95.9704h-134.163z" fill="url(#i)"/><path d="m303.581 211.442h250.698v9.7929h-250.698z" fill="url(#j)" opacity=".24"/><path d="m303.581 228.09h116.536v9.7929h-116.536z" fill="url(#k)" opacity=".24"/><path d="m70.5088 142.835h270.213v115.806h-270.213z" fill="#fff" fill-opacity=".18"/><path d="m70.9984 143.325h269.234v114.826h-269.234z" stroke="url(#l)" stroke-opacity=".4" stroke-width=".97929"/><g stroke="#e3e5e8" stroke-width="1.20631"><path d="m130.221 152.486v96.504" opacity=".2"/><path d="m180.886 152.486v96.504" opacity=".2"/><path d="m231.551 152.486v96.504" opacity=".2"/><path d="m282.216 152.486v96.504" opacity=".2"/></g><path d="m331.072 152.486c-132.123 0-106.062 96.504-250.9123 96.504h250.9123z" fill="url(#m)" fill-opacity=".24"/><path d="m80.1597 248.99c144.8503 0 118.7893-96.504 250.9123-96.504" stroke="#fff" stroke-width="1.20631"/><path d="m70.5088 258.641h93.3009v34.6505h-93.3009z" fill="#0b3cff"/><path d="m81.2907 281.466v-12.075h2.0773l3.7829 10.032h.0338l3.783-10.032h2.0773v12.075h-1.52v-9.93h-.0338l-3.6478 9.93h-1.3511l-3.6479-9.93h-.0338v9.93zm19.2543-6.417c0-.676-.372-1.25-1.7567-1.25-1.6382 0-2.1786.473-2.263 1.723h-1.3511c.0844-1.655 1.1146-2.905 3.6141-2.905 1.6377 0 3.1077.642 3.1077 2.719v4.188c0 .676.118 1.047.979.946v.946c-.354.118-.54.135-.793.135-.811 0-1.301-.22-1.537-1.166h-.034c-.5405.811-1.5032 1.318-2.9218 1.318-1.7395 0-2.8372-.997-2.8372-2.449 0-1.959 1.4524-2.466 3.6816-2.888 1.4524-.27 2.1114-.456 2.1114-1.317zm-2.8207 5.472c1.6044 0 2.8207-.727 2.8207-2.382v-1.435c-.254.253-1.0812.49-1.9931.675-1.672.355-2.4488.777-2.4488 1.807 0 .845.5066 1.335 1.6212 1.335zm10.0957-7.904c.32 0 .557.017.793.051v1.351h-.033c-1.875-.304-3.175 1.013-3.175 2.854v4.593h-1.352v-8.613h1.352v1.706h.033c.456-1.132 1.149-1.942 2.382-1.942zm2.191-3.226h1.351v7.161l3.952-3.699h1.689l-3.361 3.192 3.716 5.421h-1.605l-3.057-4.627-1.334 1.233v3.394h-1.351zm11.585 11.13c1.723 0 2.365-1.115 2.517-1.706h1.351c-.439 1.604-1.672 2.888-3.817 2.888-2.618 0-4.205-1.841-4.205-4.543 0-2.871 1.621-4.543 4.137-4.543 2.703 0 4.02 1.841 4.02 4.897h-6.806c0 1.554.929 3.007 2.803 3.007zm-.017-6.722c-1.621 0-2.786 1.148-2.786 2.533h5.455c0-1.385-1.047-2.533-2.669-2.533zm9.111.236h-1.689v5.185c0 .98.54 1.149 1.689 1.064v1.182c-.304.068-.659.102-1.014.102-1.148 0-2.026-.456-2.026-2.213v-5.32h-1.267v-1.182h1.267v-2.871h1.351v2.871h1.689zm2.426-2.854c-.372 0-.845-.287-.845-.81 0-.524.473-.811.845-.811.388 0 .844.287.844.811 0 .523-.456.81-.844.81zm-.676 1.672h1.351v8.613h-1.351zm7.768-.236c1.571 0 2.888.861 2.888 2.837v6.012h-1.351v-5.674c0-1.115-.523-1.993-1.874-1.993-1.52 0-2.534.963-2.534 2.297v5.37h-1.351v-8.613h1.351v1.03h.034c.456-.608 1.368-1.266 2.837-1.266zm11 .236h1.351v8.14c0 2.297-1.452 3.463-3.817 3.463-2.364 0-3.766-1.25-3.901-2.719h1.351c.169.878.878 1.536 2.483 1.536 1.604 0 2.533-.692 2.533-2.296v-1.301h-.034c-.506.743-1.317 1.351-2.736 1.351-2.128 0-3.85-1.368-3.85-4.205s1.722-4.205 3.85-4.205c1.419 0 2.23.642 2.736 1.3h.034zm-2.601 6.992c1.605 0 2.601-.996 2.601-3.023s-.996-3.023-2.601-3.023c-1.773 0-2.668 1.334-2.668 3.023s.895 3.023 2.668 3.023z" fill="#fff"/></svg>

<svg width="564" height="320" viewBox="0 0 564 320" fill="none" xmlns="http://www.w3.org/2000/svg">
    <rect width="83.3009" height="34.6505" transform="translate(0 26.8176)" fill="#0B3CFF" />
    <path
        d="M9.88683 37.5677H11.4912L13.788 47.4642H13.8218L16.5239 37.5677H18.2128L20.9149 47.4642H20.9487L23.2455 37.5677H24.8499L21.8606 49.6428H20.1718L17.3852 39.2903H17.3515L14.5649 49.6428H12.8761L9.88683 37.5677ZM29.0087 48.6971C30.7313 48.6971 31.3731 47.5824 31.5251 46.9914H32.8762C32.4371 48.5957 31.2042 49.8793 29.0594 49.8793C26.4417 49.8793 24.8542 48.0384 24.8542 45.3363C24.8542 42.4653 26.4755 40.7934 28.9919 40.7934C31.694 40.7934 33.0113 42.6342 33.0113 45.691H26.2053C26.2053 47.2447 27.1341 48.6971 29.0087 48.6971ZM28.9919 41.9755C27.3706 41.9755 26.2053 43.1239 26.2053 44.5088H31.6602C31.6602 43.1239 30.6131 41.9755 28.9919 41.9755ZM38.6047 40.7934C40.7664 40.7934 42.489 42.4991 42.489 45.3363C42.489 48.1735 40.7664 49.8793 38.6047 49.8793C37.2199 49.8793 36.4092 49.2375 35.9026 48.5789H35.8688V49.6428H34.5178V37.5677H35.8688V42.1444H35.9026C36.4092 41.4013 37.2199 40.7934 38.6047 40.7934ZM38.4696 48.6971C40.2429 48.6971 41.138 47.0251 41.138 45.3363C41.138 43.6475 40.2429 41.9755 38.4696 41.9755C36.8652 41.9755 35.8688 43.3097 35.8688 45.3363C35.8688 47.3629 36.8652 48.6971 38.4696 48.6971ZM47.4874 38.7499C46.339 38.6654 45.8493 38.8343 45.8493 39.8138V41.0298H47.4874V42.212H45.8493V49.6428H44.4982V42.212H43.2991V41.0298H44.4982V39.6787C44.4982 37.9223 45.3764 37.4664 46.5248 37.4664C46.8288 37.4664 47.1835 37.5001 47.4874 37.5677V38.7499ZM49.0238 37.5677H50.3748V49.6428H49.0238V37.5677ZM56.1893 49.8793C53.5547 49.8793 51.9672 48.0215 51.9672 45.3363C51.9672 42.6511 53.5547 40.7934 56.1893 40.7934C58.807 40.7934 60.3945 42.6511 60.3945 45.3363C60.3945 48.0215 58.807 49.8793 56.1893 49.8793ZM56.1893 48.6971C58.1145 48.6971 59.0434 47.1771 59.0434 45.3363C59.0434 43.4955 58.1145 41.9755 56.1893 41.9755C54.2471 41.9755 53.3183 43.4955 53.3183 45.3363C53.3183 47.1771 54.2471 48.6971 56.1893 48.6971ZM60.9014 41.0298H62.3875L64.3466 48.1735H64.3804L66.3056 41.0298H67.7411L69.6833 48.1735H69.7171L71.6761 41.0298H73.1623L70.4095 49.6428H68.974L67.0318 42.5328H66.9981L65.0897 49.6428H63.6542L60.9014 41.0298Z"
        fill="white" />
    <rect y="61.468" width="270.213" height="154.407" fill="white" fill-opacity="0.08" />
    <rect x="0.489645" y="61.9577" width="269.234" height="153.428" stroke="url(#paint0_linear_2530_9830)"
        stroke-opacity="0.4" stroke-width="0.97929" />
    <rect x="9.65039" y="71.1187" width="250.912" height="96.5046" fill="url(#paint1_linear_2530_9830)" />
    <rect opacity="0.24" x="9.65039" y="177.273" width="154.407" height="9.65046"
        fill="url(#paint2_linear_2530_9830)" />
    <rect opacity="0.24" x="9.65039" y="194.162" width="77.2037" height="9.65046"
        fill="url(#paint3_linear_2530_9830)" />
    <rect width="71.3009" height="34.6505" transform="translate(293.787 61.0928)" fill="#0B3CFF" />
    <path
        d="M304.569 83.918V71.8428H308.943C312.27 71.8428 314.314 74.0045 314.314 77.8888C314.314 81.7732 312.27 83.918 308.943 83.918H304.569ZM306.089 73.1939V82.5669H308.943C312.017 82.5669 312.794 80.2532 312.794 77.8888C312.794 75.5245 312.017 73.1939 308.943 73.1939H306.089ZM319.745 82.9722C321.467 82.9722 322.109 81.8576 322.261 81.2665H323.612C323.173 82.8709 321.94 84.1544 319.795 84.1544C317.178 84.1544 315.59 82.3136 315.59 79.6115C315.59 76.7404 317.211 75.0685 319.728 75.0685C322.43 75.0685 323.747 76.9093 323.747 79.9661H316.941C316.941 81.5198 317.87 82.9722 319.745 82.9722ZM319.728 76.2507C318.107 76.2507 316.941 77.3991 316.941 78.7839H322.396C322.396 77.3991 321.349 76.2507 319.728 76.2507ZM328.75 78.8008C330.286 79.1724 332.026 79.4257 332.026 81.5536C332.026 83.1242 330.59 84.1544 328.631 84.1544C325.997 84.1544 324.781 82.9047 324.696 81.047H326.048C326.132 82.0096 326.47 82.9722 328.631 82.9722C330.101 82.9722 330.675 82.2123 330.675 81.638C330.675 80.3883 329.543 80.3208 328.311 80.0168C326.993 79.6959 325.034 79.5439 325.034 77.5173C325.034 76.1662 326.233 75.0685 328.26 75.0685C330.405 75.0685 331.553 76.2845 331.688 77.7706H330.337C330.202 77.112 329.881 76.2507 328.26 76.2507C327.044 76.2507 326.385 76.7404 326.385 77.416C326.385 78.4293 327.551 78.5137 328.75 78.8008ZM334.348 73.633C333.977 73.633 333.504 73.3459 333.504 72.8224C333.504 72.2988 333.977 72.0117 334.348 72.0117C334.737 72.0117 335.193 72.2988 335.193 72.8224C335.193 73.3459 334.737 73.633 334.348 73.633ZM333.673 75.3049H335.024V83.918H333.673V75.3049ZM343.349 75.3049H344.7V83.4451C344.7 85.7419 343.248 86.9072 340.883 86.9072C338.519 86.9072 337.117 85.6575 336.982 84.1882H338.333C338.502 85.0664 339.212 85.725 340.816 85.725C342.42 85.725 343.349 85.0326 343.349 83.4282V82.1278H343.315C342.809 82.8709 341.998 83.4789 340.579 83.4789C338.452 83.4789 336.729 82.1109 336.729 79.2737C336.729 76.4364 338.452 75.0685 340.579 75.0685C341.998 75.0685 342.809 75.7103 343.315 76.3689H343.349V75.3049ZM340.748 82.2967C342.353 82.2967 343.349 81.3003 343.349 79.2737C343.349 77.2471 342.353 76.2507 340.748 76.2507C338.975 76.2507 338.08 77.5849 338.08 79.2737C338.08 80.9625 338.975 82.2967 340.748 82.2967ZM350.944 75.0685C352.515 75.0685 353.832 75.9298 353.832 77.9057V83.918H352.481V78.2435C352.481 77.1289 351.958 76.2507 350.607 76.2507C349.087 76.2507 348.073 77.2133 348.073 78.5475V83.918H346.722V75.3049H348.073V76.3351H348.107C348.563 75.7271 349.475 75.0685 350.944 75.0685Z"
        fill="white" />
    <rect x="293.787" y="95.7432" width="270.213" height="154.407" fill="white" fill-opacity="0.08" />
    <rect x="294.277" y="96.2328" width="269.234" height="153.428" stroke="url(#paint4_linear_2530_9830)"
        stroke-opacity="0.4" stroke-width="0.97929" />
    <rect x="303.581" y="105.679" width="110.66" height="95.9704" fill="url(#paint5_linear_2530_9830)" />
    <rect x="420.116" y="105.679" width="134.163" height="95.9704" fill="url(#paint6_linear_2530_9830)" />
    <rect opacity="0.24" x="303.581" y="211.442" width="250.698" height="9.7929" fill="url(#paint7_linear_2530_9830)" />
    <rect opacity="0.24" x="303.581" y="228.09" width="116.536" height="9.7929" fill="url(#paint8_linear_2530_9830)" />
    <rect x="70.5088" y="142.835" width="270.213" height="115.806" fill="white" fill-opacity="0.18" />
    <rect x="70.9984" y="143.325" width="269.234" height="114.826" stroke="url(#paint9_linear_2530_9830)"
        stroke-opacity="0.4" stroke-width="0.97929" />
    <line opacity="0.2" x1="130.221" y1="152.486" x2="130.221" y2="248.99" stroke="#E3E5E8" stroke-width="1.20631" />
    <line opacity="0.2" x1="180.886" y1="152.486" x2="180.886" y2="248.99" stroke="#E3E5E8" stroke-width="1.20631" />
    <line opacity="0.2" x1="231.551" y1="152.486" x2="231.551" y2="248.99" stroke="#E3E5E8" stroke-width="1.20631" />
    <line opacity="0.2" x1="282.216" y1="152.486" x2="282.216" y2="248.99" stroke="#E3E5E8" stroke-width="1.20631" />
    <path d="M331.072 152.486C198.949 152.486 225.01 248.99 80.1597 248.99H331.072V152.486Z"
        fill="url(#paint10_linear_2530_9830)" fill-opacity="0.24" />
    <path d="M80.1597 248.99C225.01 248.99 198.949 152.486 331.072 152.486" stroke="white" stroke-width="1.20631" />
    <rect width="93.3009" height="34.6505" transform="translate(70.5088 258.641)" fill="#0B3CFF" />
    <path
        d="M81.2907 281.466V269.391H83.368L87.1509 279.423H87.1847L90.9677 269.391H93.045V281.466H91.525V271.536H91.4912L87.8434 281.466H86.4923L82.8444 271.536H82.8106V281.466H81.2907ZM100.545 275.049C100.545 274.373 100.173 273.799 98.7883 273.799C97.1501 273.799 96.6097 274.272 96.5253 275.522H95.1742C95.2586 273.867 96.2888 272.617 98.7883 272.617C100.426 272.617 101.896 273.259 101.896 275.336V279.524C101.896 280.2 102.014 280.571 102.875 280.47V281.416C102.521 281.534 102.335 281.551 102.082 281.551C101.271 281.551 100.781 281.331 100.545 280.385H100.511C99.9705 281.196 99.0078 281.703 97.5892 281.703C95.8497 281.703 94.752 280.706 94.752 279.254C94.752 277.295 96.2044 276.788 98.4336 276.366C99.886 276.096 100.545 275.91 100.545 275.049ZM97.7243 280.521C99.3287 280.521 100.545 279.794 100.545 278.139V276.704C100.291 276.957 99.4638 277.194 98.5519 277.379C96.8799 277.734 96.1031 278.156 96.1031 279.186C96.1031 280.031 96.6097 280.521 97.7243 280.521ZM107.82 272.617C108.14 272.617 108.377 272.634 108.613 272.668V274.019H108.58C106.705 273.715 105.405 275.032 105.405 276.873V281.466H104.053V272.853H105.405V274.559H105.438C105.894 273.427 106.587 272.617 107.82 272.617ZM110.011 269.391H111.362V276.552L115.314 272.853H117.003L113.642 276.045L117.358 281.466H115.753L112.696 276.839L111.362 278.072V281.466H110.011V269.391ZM121.596 280.521C123.319 280.521 123.961 279.406 124.113 278.815H125.464C125.025 280.419 123.792 281.703 121.647 281.703C119.029 281.703 117.442 279.862 117.442 277.16C117.442 274.289 119.063 272.617 121.579 272.617C124.282 272.617 125.599 274.458 125.599 277.514H118.793C118.793 279.068 119.722 280.521 121.596 280.521ZM121.579 273.799C119.958 273.799 118.793 274.947 118.793 276.332H124.248C124.248 274.947 123.201 273.799 121.579 273.799ZM130.69 274.035H129.001V279.22C129.001 280.2 129.541 280.369 130.69 280.284V281.466C130.386 281.534 130.031 281.568 129.676 281.568C128.528 281.568 127.65 281.112 127.65 279.355V274.035H126.383V272.853H127.65V269.982H129.001V272.853H130.69V274.035ZM133.116 271.181C132.744 271.181 132.271 270.894 132.271 270.371C132.271 269.847 132.744 269.56 133.116 269.56C133.504 269.56 133.96 269.847 133.96 270.371C133.96 270.894 133.504 271.181 133.116 271.181ZM132.44 272.853H133.791V281.466H132.44V272.853ZM140.208 272.617C141.779 272.617 143.096 273.478 143.096 275.454V281.466H141.745V275.792C141.745 274.677 141.222 273.799 139.871 273.799C138.351 273.799 137.337 274.762 137.337 276.096V281.466H135.986V272.853H137.337V273.883H137.371C137.827 273.275 138.739 272.617 140.208 272.617ZM151.208 272.853H152.559V280.993C152.559 283.29 151.107 284.456 148.742 284.456C146.378 284.456 144.976 283.206 144.841 281.737H146.192C146.361 282.615 147.07 283.273 148.675 283.273C150.279 283.273 151.208 282.581 151.208 280.977V279.676H151.174C150.668 280.419 149.857 281.027 148.438 281.027C146.31 281.027 144.588 279.659 144.588 276.822C144.588 273.985 146.31 272.617 148.438 272.617C149.857 272.617 150.668 273.259 151.174 273.917H151.208V272.853ZM148.607 279.845C150.212 279.845 151.208 278.849 151.208 276.822C151.208 274.795 150.212 273.799 148.607 273.799C146.834 273.799 145.939 275.133 145.939 276.822C145.939 278.511 146.834 279.845 148.607 279.845Z"
        fill="white" />
    <defs>
        <linearGradient id="paint0_linear_2530_9830" x1="135.106" y1="61.468" x2="135.106" y2="215.875"
            gradientUnits="userSpaceOnUse">
            <stop stop-color="white" />
            <stop offset="1" stop-color="white" stop-opacity="0" />
        </linearGradient>
        <linearGradient id="paint1_linear_2530_9830" x1="111.639" y1="71.4034" x2="131.225" y2="167.374"
            gradientUnits="userSpaceOnUse">
            <stop stop-color="white" stop-opacity="0.4" />
            <stop offset="1" stop-color="white" stop-opacity="0.08" />
        </linearGradient>
        <linearGradient id="paint2_linear_2530_9830" x1="9.79288" y1="182.063" x2="164.521" y2="182.063"
            gradientUnits="userSpaceOnUse">
            <stop stop-color="white" />
            <stop offset="1" stop-color="white" stop-opacity="0" />
        </linearGradient>
        <linearGradient id="paint3_linear_2530_9830" x1="9.72164" y1="198.951" x2="87.0856" y2="198.951"
            gradientUnits="userSpaceOnUse">
            <stop stop-color="white" />
            <stop offset="1" stop-color="white" stop-opacity="0" />
        </linearGradient>
        <linearGradient id="paint4_linear_2530_9830" x1="428.894" y1="95.7432" x2="428.894" y2="250.151"
            gradientUnits="userSpaceOnUse">
            <stop stop-color="white" />
            <stop offset="1" stop-color="white" stop-opacity="0" />
        </linearGradient>
        <linearGradient id="paint5_linear_2530_9830" x1="348.561" y1="105.962" x2="386.314" y2="188.003"
            gradientUnits="userSpaceOnUse">
            <stop stop-color="white" stop-opacity="0.4" />
            <stop offset="1" stop-color="white" stop-opacity="0.08" />
        </linearGradient>
        <linearGradient id="paint6_linear_2530_9830" x1="474.649" y1="105.962" x2="507.631" y2="192.857"
            gradientUnits="userSpaceOnUse">
            <stop stop-color="white" stop-opacity="0.4" />
            <stop offset="1" stop-color="white" stop-opacity="0.08" />
        </linearGradient>
        <linearGradient id="paint7_linear_2530_9830" x1="303.812" y1="216.302" x2="555.031" y2="216.302"
            gradientUnits="userSpaceOnUse">
            <stop stop-color="white" />
            <stop offset="1" stop-color="white" stop-opacity="0" />
        </linearGradient>
        <linearGradient id="paint8_linear_2530_9830" x1="303.688" y1="232.95" x2="420.466" y2="232.95"
            gradientUnits="userSpaceOnUse">
            <stop stop-color="white" />
            <stop offset="1" stop-color="white" stop-opacity="0" />
        </linearGradient>
        <linearGradient id="paint9_linear_2530_9830" x1="205.615" y1="142.835" x2="205.615" y2="258.641"
            gradientUnits="userSpaceOnUse">
            <stop stop-color="white" />
            <stop offset="1" stop-color="white" stop-opacity="0" />
        </linearGradient>
        <linearGradient id="paint10_linear_2530_9830" x1="205.616" y1="152.486" x2="205.616" y2="248.99"
            gradientUnits="userSpaceOnUse">
            <stop stop-color="white" />
            <stop offset="1" stop-color="white" stop-opacity="0" />
        </linearGradient>
    </defs>
</svg>
